MA4T1/111/aimg/cojinazul.svg

<svg clip-rule="evenodd" fill-rule="evenodd" stroke-linejoin="round" stroke-miterlimit="2" viewBox="0 0 182 150" xmlns="http://www.w3.org/2000/svg"><g fill-rule="nonzero"><path d="m0-20.819c-.235-.468-.389-.832-.592-1.166-.47-.771-1.164-1.211-2.07-1.3-.435-.043-.786.122-1.002.5-.439.773-.499 1.821.555 2.414.27.153.563.264.839.405.293.147.531.156.707-.18.037-.071.178-.089.271-.131.024.1.089.211.065.298-.23.844-.505 1.678-.709 2.527-.322 1.344-.624 2.693-.89 4.048-.406 2.075-.822 4.15-1.142 6.24-.217 1.419-.311 2.86-.397 4.295-.098 1.621.287 1.626-1.603 1.612-.603-.004-1.105.204-1.545.588-.921.807-.773 1.606.368 2.021.053.019.105.046.16.057 1.605.297 2.299-.013 2.902-1.332.036-.077.062-.158.092-.236.31-.783.305-.774 1.018-.409.351.18.715.345 1.088.472 2.074.704 4.204 1.07 6.4 1.101 1.213.018 2.426.117 3.636.218 2.632.219 5.249.244 7.823-.471.408-.113.81-.248 1.22-.353.092-.024.246.006.297.07.05.063.046.246-.009.298-.285.269-.151.518.022.749.134.179.284.372.472.478 1.098.62 2.254.706 3.42.231.526-.214.697-.775.431-1.278-.306-.578-.739-.994-1.455-.999-.453-.004-.907-.021-1.356-.068-.561-.058-.7-.258-.519-.795.225-.668.501-1.318.746-1.98.136-.368.319-.736.367-1.117.14-1.119.281-2.244.317-3.369.092-2.909.123-5.819.188-8.728.018-.798-.055-1.575-.309-2.337-.098-.292-.159-.6-.206-.904-.014-.087.056-.243.128-.274.076-.032.219.022.298.082.084.065.147.176.186.279.107.281.325.27.559.241 1.695-.217 2.807-1.628 2.581-3.18-.116-.801-.441-1.07-1.26-.98-1.358.15-2.674 1.283-3.024 2.603-.103.39-.318.51-.573.262-.523-.509-1.21-.614-1.854-.736-1.441-.274-2.897-.485-4.375-.424-.282.012-.565-.026-.847-.035-2.316-.079-4.632-.181-6.95-.223-.843-.016-1.697.061-2.532.187-.654.098-1.35.151-1.937.729m19.046 20.051c.682.091 1.215.136 1.737.236.935.181 1.702 1.109 1.672 1.974-.019.553-.234 1.004-.759 1.22-1.363.563-2.71.507-3.973-.27-.292-.18-.509-.525-.685-.836-.183-.322-.363-.434-.742-.344-.822.196-1.655.352-2.489.493-.472.08-.952.131-1.43.143-2.377.061-4.747-.071-7.112-.302-.393-.038-.791-.04-1.186-.049-2.515-.052-4.938-.512-7.221-1.605-.071-.034-.16-.033-.28-.057-.146.303-.279.613-.441.906-.456.828-1.108 1.316-2.112 1.287-.747-.023-1.464-.071-2.095-.535-.618-.455-.806-1.004-.48-1.699.413-.876 1.12-1.403 2.087-1.543.334-.049.679-.075 1.014-.05.388.028.47-.138.499-.488.145-1.714.263-3.433.492-5.137.354-2.629.84-5.236 1.542-7.799.351-1.278.616-2.577.925-3.867.069-.286-.036-.4-.319-.462-.355-.08-.718-.176-1.043-.336-1.347-.668-1.585-2.577-.451-3.569.672-.587 1.431-.443 2.151-.137.691.294 1.217.798 1.581 1.475.296.552.322.552.898.363 1.004-.331 2.044-.442 3.089-.467 1.385-.034 2.772-.043 4.157-.017 1.949.037 3.906.023 5.842.211 1.362.133 2.751.274 4.065.761.71.262.712.213 1.155-.358.293-.378.603-.75.948-1.08.663-.634 1.474-.923 2.392-.907.678.011 1.024.263 1.247.922.571 1.69-.475 3.437-1.79 3.932-.343.128-.699.223-1.052.324-.243.068-.375.15-.329.467.291 1.995.212 3.997.087 6.001-.053.845-.038 1.695-.033 2.543.008 1.217-.081 2.424-.284 3.626-.06.359-.059.733-.047 1.098.025.696-.161 1.333-.442 1.963-.275.614-.501 1.25-.785 1.969" fill="#231f20" transform="matrix(5.55556 0 0 5.55556 48.37500912 132.57720976)"/><path d="m0-5.91c-.013.033-.026.067-.039.101.768.601 1.532 1.207 2.31 1.795.081.061.242.017.366.022-.037-.122-.036-.293-.118-.358-.572-.456-1.148-.909-1.752-1.319-.213-.143-.509-.165-.767-.241m-2.808 5.754c.042.062.083.125.125.186.145-.065.294-.127.436-.199 1.258-.634 2.49-1.328 3.778-1.892 2.349-1.03 4.702-2.065 7.233-2.593.055-.011.12-.02.158-.054.057-.052.144-.143.129-.185-.034-.091-.128-.232-.19-.228-.249.017-.502.059-.742.129-3.26.953-6.379 2.256-9.379 3.843-.54.286-1.032.66-1.548.993m-1.958-13.304c.588-.578 1.284-.631 1.937-.729.835-.126 1.689-.202 2.533-.187 2.317.042 4.633.144 6.949.223.283.01.566.047.847.035 1.479-.061 2.935.15 4.375.424.644.122 1.331.227 1.854.736.255.248.47.128.573-.262.35-1.32 1.667-2.453 3.025-2.603.819-.09 1.143.18 1.259.98.226 1.552-.885 2.963-2.58 3.18-.235.029-.453.04-.56-.241-.039-.103-.101-.214-.185-.278-.079-.061-.222-.115-.299-.082-.071.03-.141.186-.128.273.048.305.108.612.206.904.254.762.327 1.539.31 2.337-.066 2.909-.097 5.819-.189 8.728-.036 1.126-.177 2.25-.316 3.369-.048.382-.232.749-.368 1.117-.245.662-.521 1.313-.746 1.98-.18.538-.042.737.519.795.45.047.904.064 1.356.068.716.006 1.15.422 1.455.999.267.503.096 1.064-.431 1.278-1.166.475-2.321.389-3.42-.23-.188-.107-.338-.3-.472-.479-.173-.231-.306-.479-.022-.749.055-.052.059-.235.01-.298-.051-.064-.206-.093-.297-.07-.41.105-.812.24-1.221.353-2.573.715-5.19.69-7.822.471-1.21-.1-2.424-.2-3.636-.218-2.196-.031-4.326-.397-6.4-1.101-.374-.127-.737-.292-1.088-.472-.714-.365-.709-.374-1.018.409-.031.078-.057.16-.092.237-.604 1.318-1.298 1.629-2.903 1.331-.055-.011-.106-.037-.16-.057-1.141-.415-1.289-1.214-.367-2.02.439-.385.942-.593 1.545-.588 1.889.013 1.504.008 1.602-1.613.086-1.435.18-2.876.397-4.295.32-2.089.736-4.165 1.143-6.24.265-1.355.568-2.704.89-4.048.203-.849.479-1.683.709-2.527.024-.087-.041-.198-.065-.298-.093.042-.235.06-.272.131-.176.336-.413.327-.706.18-.277-.141-.57-.252-.84-.405-1.054-.592-.994-1.641-.554-2.414.215-.378.566-.543 1.002-.5.905.089 1.6.529 2.07 1.3.203.334.356.698.591 1.166" fill="#73c1ec" transform="matrix(5.55556 0 0 5.55556 74.84725252 91.69384372)"/><path d="m0 23.899c-.411-.134-.817-.314-1.137-.61-.252-.235-.416-.527-.562-.834-.146-.308-.296-.586-.578-.79-.221-.162-.491-.218-.757-.255-.752-.105-1.528-.039-2.281.021-.726.058-1.446.103-2.173.133-1.182.049-2.364.105-3.547.081-1.078-.02-2.143-.124-3.208-.293-1.672-.265-3.418-.623-4.861-1.557-.688-.445-1.361-1.065-1.678-1.837-.355-.865-.28-1.825-.115-2.722.183-.998.424-1.99.642-2.981.259-1.183.539-2.363.842-3.537.15-.582.306-1.162.467-1.741.088-.313.169-.62.302-.918.282-.628.611-1.232.875-1.868.119-.285.238-.583.292-.89.035-.202.049-.351-.127-.468-.245-.164-.543-.26-.819-.359-.355-.126-.715-.241-1.07-.368-.672-.239-1.285-.522-1.726-1.109-.432-.578-.483-1.256-.417-1.941-.123-.027-.242-.064-.374-.077-.436-.043-.787.122-1.002.5-.44.773-.5 1.821.554 2.414.27.152.563.264.84.404.293.148.53.157.706-.179.037-.072.179-.089.272-.131.024.1.089.211.065.298-.23.843-.506 1.677-.709 2.527-.322 1.344-.625 2.692-.89 4.048-.407 2.075-.823 4.15-1.143 6.24-.217 1.419-.311 2.86-.397 4.295-.098 1.621.287 1.626-1.602 1.612-.603-.004-1.106.204-1.545.588-.922.807-.774 1.606.367 2.021.054.019.105.046.16.056 1.605.298 2.299-.012 2.903-1.331.035-.077.061-.158.092-.236.309-.783.304-.774 1.018-.409.351.18.714.345 1.088.472 2.074.704 4.204 1.07 6.4 1.101 1.212.018 2.426.117 3.636.218 2.632.219 5.249.244 7.822-.471.408-.113.811-.248 1.221-.353.091-.024.246.006.297.07.049.062.045.246-.01.298-.284.268-.151.517.022.749.134.179.284.372.472.478 1.099.62 2.254.705 3.42.231.194-.078.338-.205.432-.358-.833.106-1.693.024-2.479-.232" fill="#0093d3" transform="matrix(5.55556 0 0 5.55556 155.863984 8.88822192)"/><g fill="#231f20"><path d="m0 4.782c.515-.333 1.008-.707 1.548-.993 2.999-1.587 6.119-2.89 9.379-3.843.24-.07.492-.112.742-.129.061-.004.156.137.189.228.016.042-.071.133-.128.185-.038.034-.103.043-.158.054-2.531.528-4.885 1.563-7.233 2.593-1.289.564-2.52 1.259-3.778 1.892-.143.073-.291.134-.436.2-.042-.062-.083-.125-.125-.187" transform="matrix(5.55556 0 0 5.55556 59.2527956 64.26048844)"/><path d="m0-1.957c.258.076.554.098.767.241.604.41 1.18.863 1.752 1.319.082.065.081.236.118.358-.124-.005-.285.039-.366-.022-.778-.588-1.542-1.194-2.31-1.795.013-.034.026-.068.039-.101" transform="matrix(5.55556 0 0 5.55556 74.84725252 69.73271504)"/></g></g></svg>

<?xml version="1.0" encoding="UTF-8" standalone="no"?>
<!DOCTYPE svg PUBLIC "-//W3C//DTD SVG 1.1//EN" "http://www.w3.org/Graphics/SVG/1.1/DTD/svg11.dtd">
<svg width="100%" height="100%" viewBox="0 0 182 150" version="1.1" xmlns="http://www.w3.org/2000/svg" xmlns:xlink="http://www.w3.org/1999/xlink" xml:space="preserve" xmlns:serif="http://www.serif.com/" style="fill-rule:evenodd;clip-rule:evenodd;stroke-linejoin:round;stroke-miterlimit:2;">
    <g transform="matrix(1,0,0,1,-7921.24,-12891)">
        <g transform="matrix(5.55556,0,0,5.55556,7263.77,9566.93)">
            <g transform="matrix(1,0,0,1,127.052,622.196)">
                <path d="M0,-20.819C-0.235,-21.287 -0.389,-21.651 -0.592,-21.985C-1.062,-22.756 -1.756,-23.196 -2.662,-23.285C-3.097,-23.328 -3.448,-23.163 -3.664,-22.785C-4.103,-22.012 -4.163,-20.964 -3.109,-20.371C-2.839,-20.218 -2.546,-20.107 -2.27,-19.966C-1.977,-19.819 -1.739,-19.81 -1.563,-20.146C-1.526,-20.217 -1.385,-20.235 -1.292,-20.277C-1.268,-20.177 -1.203,-20.066 -1.227,-19.979C-1.457,-19.135 -1.732,-18.301 -1.936,-17.452C-2.258,-16.108 -2.56,-14.759 -2.826,-13.404C-3.232,-11.329 -3.648,-9.254 -3.968,-7.164C-4.185,-5.745 -4.279,-4.304 -4.365,-2.869C-4.463,-1.248 -4.078,-1.243 -5.968,-1.257C-6.571,-1.261 -7.073,-1.053 -7.513,-0.669C-8.434,0.138 -8.286,0.937 -7.145,1.352C-7.092,1.371 -7.04,1.398 -6.985,1.409C-5.38,1.706 -4.686,1.396 -4.083,0.077C-4.047,0 -4.021,-0.081 -3.991,-0.159C-3.681,-0.942 -3.686,-0.933 -2.973,-0.568C-2.622,-0.388 -2.258,-0.223 -1.885,-0.096C0.189,0.608 2.319,0.974 4.515,1.005C5.728,1.023 6.941,1.122 8.151,1.223C10.783,1.442 13.4,1.467 15.974,0.752C16.382,0.639 16.784,0.504 17.194,0.399C17.286,0.375 17.44,0.405 17.491,0.469C17.541,0.532 17.537,0.715 17.482,0.767C17.197,1.036 17.331,1.285 17.504,1.516C17.638,1.695 17.788,1.888 17.976,1.994C19.074,2.614 20.23,2.7 21.396,2.225C21.922,2.011 22.093,1.45 21.827,0.947C21.521,0.369 21.088,-0.047 20.372,-0.052C19.919,-0.056 19.465,-0.073 19.016,-0.12C18.455,-0.178 18.316,-0.378 18.497,-0.915C18.722,-1.583 18.998,-2.233 19.243,-2.895C19.379,-3.263 19.562,-3.631 19.61,-4.012C19.75,-5.131 19.891,-6.256 19.927,-7.381C20.019,-10.29 20.05,-13.2 20.115,-16.109C20.133,-16.907 20.06,-17.684 19.806,-18.446C19.708,-18.738 19.647,-19.046 19.6,-19.35C19.586,-19.437 19.656,-19.593 19.728,-19.624C19.804,-19.656 19.947,-19.602 20.026,-19.542C20.11,-19.477 20.173,-19.366 20.212,-19.263C20.319,-18.982 20.537,-18.993 20.771,-19.022C22.466,-19.239 23.578,-20.65 23.352,-22.202C23.236,-23.003 22.911,-23.272 22.092,-23.182C20.734,-23.032 19.418,-21.899 19.068,-20.579C18.965,-20.189 18.75,-20.069 18.495,-20.317C17.972,-20.826 17.285,-20.931 16.641,-21.053C15.2,-21.327 13.744,-21.538 12.266,-21.477C11.984,-21.465 11.701,-21.503 11.419,-21.512C9.103,-21.591 6.787,-21.693 4.469,-21.735C3.626,-21.751 2.772,-21.674 1.937,-21.548C1.283,-21.45 0.587,-21.397 0,-20.819M19.046,-0.768C19.728,-0.677 20.261,-0.632 20.783,-0.532C21.718,-0.351 22.485,0.577 22.455,1.442C22.436,1.995 22.221,2.446 21.696,2.662C20.333,3.225 18.986,3.169 17.723,2.392C17.431,2.212 17.214,1.867 17.038,1.556C16.855,1.234 16.675,1.122 16.296,1.212C15.474,1.408 14.641,1.564 13.807,1.705C13.335,1.785 12.855,1.836 12.377,1.848C10,1.909 7.63,1.777 5.265,1.546C4.872,1.508 4.474,1.506 4.079,1.497C1.564,1.445 -0.859,0.985 -3.142,-0.108C-3.213,-0.142 -3.302,-0.141 -3.422,-0.165C-3.568,0.138 -3.701,0.448 -3.863,0.741C-4.319,1.569 -4.971,2.057 -5.975,2.028C-6.722,2.005 -7.439,1.957 -8.07,1.493C-8.688,1.038 -8.876,0.489 -8.55,-0.206C-8.137,-1.082 -7.43,-1.609 -6.463,-1.749C-6.129,-1.798 -5.784,-1.824 -5.449,-1.799C-5.061,-1.771 -4.979,-1.937 -4.95,-2.287C-4.805,-4.001 -4.687,-5.72 -4.458,-7.424C-4.104,-10.053 -3.618,-12.66 -2.916,-15.223C-2.565,-16.501 -2.3,-17.8 -1.991,-19.09C-1.922,-19.376 -2.027,-19.49 -2.31,-19.552C-2.665,-19.632 -3.028,-19.728 -3.353,-19.888C-4.7,-20.556 -4.938,-22.465 -3.804,-23.457C-3.132,-24.044 -2.373,-23.9 -1.653,-23.594C-0.962,-23.3 -0.436,-22.796 -0.072,-22.119C0.224,-21.567 0.25,-21.567 0.826,-21.756C1.83,-22.087 2.87,-22.198 3.915,-22.223C5.3,-22.257 6.687,-22.266 8.072,-22.24C10.021,-22.203 11.978,-22.217 13.914,-22.029C15.276,-21.896 16.665,-21.755 17.979,-21.268C18.689,-21.006 18.691,-21.055 19.134,-21.626C19.427,-22.004 19.737,-22.376 20.082,-22.706C20.745,-23.34 21.556,-23.629 22.474,-23.613C23.152,-23.602 23.498,-23.35 23.721,-22.691C24.292,-21.001 23.246,-19.254 21.931,-18.759C21.588,-18.631 21.232,-18.536 20.879,-18.435C20.636,-18.367 20.504,-18.285 20.55,-17.968C20.841,-15.973 20.762,-13.971 20.637,-11.967C20.584,-11.122 20.599,-10.272 20.604,-9.424C20.612,-8.207 20.523,-7 20.32,-5.798C20.26,-5.439 20.261,-5.065 20.273,-4.7C20.298,-4.004 20.112,-3.367 19.831,-2.737C19.556,-2.123 19.33,-1.487 19.046,-0.768" style="fill:rgb(35,31,32);fill-rule:nonzero;"/>
            </g>
        </g>
        <g transform="matrix(5.55556,0,0,5.55556,7263.77,9566.93)">
            <g transform="matrix(1,0,0,1,131.817,614.837)">
                <path d="M0,-5.91C-0.013,-5.877 -0.026,-5.843 -0.039,-5.809C0.729,-5.208 1.493,-4.602 2.271,-4.014C2.352,-3.953 2.513,-3.997 2.637,-3.992C2.6,-4.114 2.601,-4.285 2.519,-4.35C1.947,-4.806 1.371,-5.259 0.767,-5.669C0.554,-5.812 0.258,-5.834 0,-5.91M-2.808,-0.156C-2.766,-0.094 -2.725,-0.031 -2.683,0.03C-2.538,-0.035 -2.389,-0.097 -2.247,-0.169C-0.989,-0.803 0.243,-1.497 1.531,-2.061C3.88,-3.091 6.233,-4.126 8.764,-4.654C8.819,-4.665 8.884,-4.674 8.922,-4.708C8.979,-4.76 9.066,-4.851 9.051,-4.893C9.017,-4.984 8.923,-5.125 8.861,-5.121C8.612,-5.104 8.359,-5.062 8.119,-4.992C4.859,-4.039 1.74,-2.736 -1.26,-1.149C-1.8,-0.863 -2.292,-0.489 -2.808,-0.156M-4.766,-13.46C-4.178,-14.038 -3.482,-14.091 -2.829,-14.189C-1.994,-14.315 -1.14,-14.391 -0.296,-14.376C2.021,-14.334 4.337,-14.232 6.653,-14.153C6.936,-14.143 7.219,-14.106 7.5,-14.118C8.979,-14.179 10.435,-13.968 11.875,-13.694C12.519,-13.572 13.206,-13.467 13.729,-12.958C13.984,-12.71 14.199,-12.83 14.302,-13.22C14.652,-14.54 15.969,-15.673 17.327,-15.823C18.146,-15.913 18.47,-15.643 18.586,-14.843C18.812,-13.291 17.701,-11.88 16.006,-11.663C15.771,-11.634 15.553,-11.623 15.446,-11.904C15.407,-12.007 15.345,-12.118 15.261,-12.182C15.182,-12.243 15.039,-12.297 14.962,-12.264C14.891,-12.234 14.821,-12.078 14.834,-11.991C14.882,-11.686 14.942,-11.379 15.04,-11.087C15.294,-10.325 15.367,-9.548 15.35,-8.75C15.284,-5.841 15.253,-2.931 15.161,-0.022C15.125,1.104 14.984,2.228 14.845,3.347C14.797,3.729 14.613,4.096 14.477,4.464C14.232,5.126 13.956,5.777 13.731,6.444C13.551,6.982 13.689,7.181 14.25,7.239C14.7,7.286 15.154,7.303 15.606,7.307C16.322,7.313 16.756,7.729 17.061,8.306C17.328,8.809 17.157,9.37 16.63,9.584C15.464,10.059 14.309,9.973 13.21,9.354C13.022,9.247 12.872,9.054 12.738,8.875C12.565,8.644 12.432,8.396 12.716,8.126C12.771,8.074 12.775,7.891 12.726,7.828C12.675,7.764 12.52,7.735 12.429,7.758C12.019,7.863 11.617,7.998 11.208,8.111C8.635,8.826 6.018,8.801 3.386,8.582C2.176,8.482 0.962,8.382 -0.25,8.364C-2.446,8.333 -4.576,7.967 -6.65,7.263C-7.024,7.136 -7.387,6.971 -7.738,6.791C-8.452,6.426 -8.447,6.417 -8.756,7.2C-8.787,7.278 -8.813,7.36 -8.848,7.437C-9.452,8.755 -10.146,9.066 -11.751,8.768C-11.806,8.757 -11.857,8.731 -11.911,8.711C-13.052,8.296 -13.2,7.497 -12.278,6.691C-11.839,6.306 -11.336,6.098 -10.733,6.103C-8.844,6.116 -9.229,6.111 -9.131,4.49C-9.045,3.055 -8.951,1.614 -8.734,0.195C-8.414,-1.894 -7.998,-3.97 -7.591,-6.045C-7.326,-7.4 -7.023,-8.749 -6.701,-10.093C-6.498,-10.942 -6.222,-11.776 -5.992,-12.62C-5.968,-12.707 -6.033,-12.818 -6.057,-12.918C-6.15,-12.876 -6.292,-12.858 -6.329,-12.787C-6.505,-12.451 -6.742,-12.46 -7.035,-12.607C-7.312,-12.748 -7.605,-12.859 -7.875,-13.012C-8.929,-13.604 -8.869,-14.653 -8.429,-15.426C-8.214,-15.804 -7.863,-15.969 -7.427,-15.926C-6.522,-15.837 -5.827,-15.397 -5.357,-14.626C-5.154,-14.292 -5.001,-13.928 -4.766,-13.46" style="fill:rgb(115,193,236);fill-rule:nonzero;"/>
            </g>
        </g>
        <g transform="matrix(5.55556,0,0,5.55556,7263.77,9566.93)">
            <g transform="matrix(1,0,0,1,146.4,599.932)">
                <path d="M0,23.899C-0.411,23.765 -0.817,23.585 -1.137,23.289C-1.389,23.054 -1.553,22.762 -1.699,22.455C-1.845,22.147 -1.995,21.869 -2.277,21.665C-2.498,21.503 -2.768,21.447 -3.034,21.41C-3.786,21.305 -4.562,21.371 -5.315,21.431C-6.041,21.489 -6.761,21.534 -7.488,21.564C-8.67,21.613 -9.852,21.669 -11.035,21.645C-12.113,21.625 -13.178,21.521 -14.243,21.352C-15.915,21.087 -17.661,20.729 -19.104,19.795C-19.792,19.35 -20.465,18.73 -20.782,17.958C-21.137,17.093 -21.062,16.133 -20.897,15.236C-20.714,14.238 -20.473,13.246 -20.255,12.255C-19.996,11.072 -19.716,9.892 -19.413,8.718C-19.263,8.136 -19.107,7.556 -18.946,6.977C-18.858,6.664 -18.777,6.357 -18.644,6.059C-18.362,5.431 -18.033,4.827 -17.769,4.191C-17.65,3.906 -17.531,3.608 -17.477,3.301C-17.442,3.099 -17.428,2.95 -17.604,2.833C-17.849,2.669 -18.147,2.573 -18.423,2.474C-18.778,2.348 -19.138,2.233 -19.493,2.106C-20.165,1.867 -20.778,1.584 -21.219,0.997C-21.651,0.419 -21.702,-0.259 -21.636,-0.944C-21.759,-0.971 -21.878,-1.008 -22.01,-1.021C-22.446,-1.064 -22.797,-0.899 -23.012,-0.521C-23.452,0.252 -23.512,1.3 -22.458,1.893C-22.188,2.045 -21.895,2.157 -21.618,2.297C-21.325,2.445 -21.088,2.454 -20.912,2.118C-20.875,2.046 -20.733,2.029 -20.64,1.987C-20.616,2.087 -20.551,2.198 -20.575,2.285C-20.805,3.128 -21.081,3.962 -21.284,4.812C-21.606,6.156 -21.909,7.504 -22.174,8.86C-22.581,10.935 -22.997,13.01 -23.317,15.1C-23.534,16.519 -23.628,17.96 -23.714,19.395C-23.812,21.016 -23.427,21.021 -25.316,21.007C-25.919,21.003 -26.422,21.211 -26.861,21.595C-27.783,22.402 -27.635,23.201 -26.494,23.616C-26.44,23.635 -26.389,23.662 -26.334,23.672C-24.729,23.97 -24.035,23.66 -23.431,22.341C-23.396,22.264 -23.37,22.183 -23.339,22.105C-23.03,21.322 -23.035,21.331 -22.321,21.696C-21.97,21.876 -21.607,22.041 -21.233,22.168C-19.159,22.872 -17.029,23.238 -14.833,23.269C-13.621,23.287 -12.407,23.386 -11.197,23.487C-8.565,23.706 -5.948,23.731 -3.375,23.016C-2.967,22.903 -2.564,22.768 -2.154,22.663C-2.063,22.639 -1.908,22.669 -1.857,22.733C-1.808,22.795 -1.812,22.979 -1.867,23.031C-2.151,23.299 -2.018,23.548 -1.845,23.78C-1.711,23.959 -1.561,24.152 -1.373,24.258C-0.274,24.878 0.881,24.963 2.047,24.489C2.241,24.411 2.385,24.284 2.479,24.131C1.646,24.237 0.786,24.155 0,23.899" style="fill:rgb(0,147,211);fill-rule:nonzero;"/>
            </g>
        </g>
        <g transform="matrix(5.55556,0,0,5.55556,7263.77,9566.93)">
            <g transform="matrix(1,0,0,1,129.01,609.899)">
                <path d="M0,4.782C0.515,4.449 1.008,4.075 1.548,3.789C4.547,2.202 7.667,0.899 10.927,-0.054C11.167,-0.124 11.419,-0.166 11.669,-0.183C11.73,-0.187 11.825,-0.046 11.858,0.045C11.874,0.087 11.787,0.178 11.73,0.23C11.692,0.264 11.627,0.273 11.572,0.284C9.041,0.812 6.687,1.847 4.339,2.877C3.05,3.441 1.819,4.136 0.561,4.769C0.418,4.842 0.27,4.903 0.125,4.969C0.083,4.907 0.042,4.844 0,4.782" style="fill:rgb(35,31,32);fill-rule:nonzero;"/>
            </g>
        </g>
        <g transform="matrix(5.55556,0,0,5.55556,7263.77,9566.93)">
            <g transform="matrix(1,0,0,1,131.817,610.884)">
                <path d="M0,-1.957C0.258,-1.881 0.554,-1.859 0.767,-1.716C1.371,-1.306 1.947,-0.853 2.519,-0.397C2.601,-0.332 2.6,-0.161 2.637,-0.039C2.513,-0.044 2.352,0 2.271,-0.061C1.493,-0.649 0.729,-1.255 -0.039,-1.856C-0.026,-1.89 -0.013,-1.924 0,-1.957" style="fill:rgb(35,31,32);fill-rule:nonzero;"/>
            </g>
        </g>
    </g>
</svg>
